lib/svgs/star-stroke.svg

<?xml version="1.0" encoding="UTF-8"?>
<svg width="16px" height="16px" viewBox="0 0 16 16" version="1.1" xmlns="http://www.w3.org/2000/svg" xmlns:xlink="http://www.w3.org/1999/xlink">
    <!-- Generator: sketchtool 51.3 (57544) - http://www.bohemiancoding.com/sketch -->
    <title>app/star-stroke</title>
    <desc>Created with sketchtool.</desc>
    <defs></defs>
    <g id="Icons" stroke="none" stroke-width="1" fill="none" fill-rule="evenodd">
        <g id="Web" transform="translate(-481.000000, -664.000000)" fill="#000000">
            <g id="app/star-stroke" transform="translate(481.000000, 664.000000)">
                <path d="M3.42661296,15.6232557 C3.30161296,15.6232557 3.17861296,15.5852557 3.07361296,15.5092557 C2.88861296,15.3752557 2.79661296,15.1482557 2.83461296,14.9222557 L3.65561296,10.1402557 L0.181612956,6.75425569 C0.0176129561,6.59425569 -0.0413870439,6.35625569 0.0296129561,6.13925569 C0.0996129561,5.92125569 0.287612956,5.76325569 0.513612956,5.73025569 L5.31461296,5.03325569 L7.46161296,0.682255686 C7.66361296,0.273255686 8.33561296,0.273255686 8.53761296,0.682255686 L10.684613,5.03325569 L15.486613,5.73025569 C15.712613,5.76325569 15.899613,5.92125569 15.970613,6.13925569 C16.040613,6.35625569 15.982613,6.59425569 15.818613,6.75425569 L12.344613,10.1402557 L13.164613,14.9222557 C13.202613,15.1482557 13.110613,15.3752557 12.925613,15.5092557 C12.741613,15.6452557 12.496613,15.6612557 12.293613,15.5552557 L7.99961296,13.2972557 L3.70561296,15.5552557 C3.61761296,15.6012557 3.52161296,15.6232557 3.42661296,15.6232557 L3.42661296,15.6232557 M1.88961296,6.74325569 L4.71861296,9.50125569 C4.85961296,9.63925569 4.92461296,9.83825569 4.89061296,10.0332557 L4.22261296,13.9272557 L7.72061296,12.0882557 C7.89561296,11.9962557 8.10461296,11.9962557 8.27961296,12.0882557 L11.776613,13.9272557 L11.108613,10.0332557 C11.075613,9.83825569 11.139613,9.63925569 11.280613,9.50125569 L14.110613,6.74325569 L10.200613,6.17525569 C10.004613,6.14725569 9.83561296,6.02425569 9.74861296,5.84725569 L7.99961296,2.30425569 L6.25161296,5.84725569 C6.16361296,6.02425569 5.99461296,6.14725569 5.79961296,6.17525569 L1.88961296,6.74325569 L1.88961296,6.74325569" id="Shape"></path>
            </g>
        </g>
    </g>
</svg>

<svg xmlns="http://www.w3.org/2000/svg" viewBox="0 0 16 16">
    <path d="M3.427 15.623a.6.6 0 0 1-.592-.7l.82-4.783L.183 6.754A.599.599 0 0 1 .514 5.73l4.8-.697L7.463.683c.202-.41.874-.41 1.076 0l2.147 4.35 4.802.697a.6.6 0 0 1 .332 1.024l-3.474 3.386.82 4.782a.6.6 0 0 1-.871.633L8 13.297l-4.294 2.258a.602.602 0 0 1-.28.068M1.89 6.743l2.829 2.758a.6.6 0 0 1 .172.532l-.668 3.894 3.498-1.839a.6.6 0 0 1 .559 0l3.497 1.84-.668-3.895a.603.603 0 0 1 .172-.532l2.83-2.758-3.91-.568a.598.598 0 0 1-.452-.328l-1.75-3.543-1.747 3.543a.601.601 0 0 1-.452.328l-3.91.568"/>
</svg>
